X: 2015
T: Road By Day
R: reel
C: Rick Gagne
N: 1987 on bouzouki
N: first part played only once
Q: 1/4=180
M: 4/4
K: D
fe | "D"dcBA "Em"GE~E2 | "Bm"DEFA "A"E2AG | "D"FGAd "G"Bd~d2 |\
"A"cdec "D"d2de | 
"D5"fdfa "G"gfed | "A"cdec "A5"A2ag | "D"fedA "G"Beed | "A"cdec "D"d2 ||
DE | "Bm"FA~A2 "G"GB~B2 | "A"Addc "A5"A2AB | "Am"=cAB=c "A"^cABc |\
"D"defd "A"efge | 
"D"fa~a2 "G"bagf | "A"edcB "A5"A2ag | "D"fedA "G"Beed | "A"cdec "D"d2 :|
